style-guide/assets/wds-icons-user-avatar-small.svg

<svg xmlns="http://www.w3.org/2000/svg" xmlns:xlink="http://www.w3.org/1999/xlink" width="18" height="18" viewBox="0 0 18 18">
  <defs>
    <path id="user-avatar-a" d="M13.05,14.704 C10.682,16.377 7.31,16.376 4.945,14.701 C4.92,14.683 4.896,14.666 4.872,14.648 C5.972,13.592 7.432,13 9,13 C10.567,13 12.027,13.592 13.127,14.648 C13.101,14.667 13.076,14.685 13.05,14.704 M9,2 C12.86,2 16,5.141 16,9 C16,10.561 15.485,12.038 14.551,13.257 C13.075,11.816 11.113,11 9,11 C6.886,11 4.925,11.815 3.449,13.257 C2.513,12.036 2,10.559 2,9 C2,5.141 5.14,2 9,2 M18,9 C18,4.037 13.962,0 9,0 C4.037,0 0,4.037 0,9 C0,11.455 0.974,13.755 2.748,15.481 C4.442,17.105 6.662,18 9,18 C9.292,18 9.582,17.986 9.87,17.958 C11.884,17.765 13.77,16.902 15.252,15.481 L15.252,15.48 C15.254,15.479 15.256,15.478 15.257,15.476 C17.026,13.755 18,11.455 18,9 M8.9997,5.9999 C9.5507,5.9999 9.9997,6.4489 9.9997,6.9999 C9.9997,7.5509 9.5507,7.9999 8.9997,7.9999 C8.4487,7.9999 7.9997,7.5509 7.9997,6.9999 C7.9997,6.4489 8.4487,5.9999 8.9997,5.9999 M8.9997,9.9999 C10.6537,9.9999 11.9997,8.6539 11.9997,6.9999 C11.9997,5.3459 10.6537,3.9999 8.9997,3.9999 C7.3457,3.9999 5.9997,5.3459 5.9997,6.9999 C5.9997,8.6539 7.3457,9.9999 8.9997,9.9999"/>
  </defs>
  <use fill-rule="evenodd" xlink:href="#user-avatar-a"/>
</svg>

<svg xmlns="http://www.w3.org/2000/svg" xmlns:xlink="http://www.w3.org/1999/xlink" viewBox="0 0 18 18">
  <defs>
    <path id="user-avatar-a" d="M13.05 14.704c-2.368 1.673-5.74 1.672-8.105-.003l-.073-.053A5.921 5.921 0 0 1 9 13a5.92 5.92 0 0 1 4.127 1.648l-.077.056M9 2c3.86 0 7 3.141 7 7a6.965 6.965 0 0 1-1.449 4.257A7.895 7.895 0 0 0 9 11a7.89 7.89 0 0 0-5.551 2.257A6.961 6.961 0 0 1 2 9c0-3.859 3.14-7 7-7m9 7c0-4.963-4.038-9-9-9-4.963 0-9 4.037-9 9 0 2.455.974 4.755 2.748 6.481a8.996 8.996 0 0 0 7.122 2.477 8.996 8.996 0 0 0 5.382-2.477v-.001l.005-.004A8.968 8.968 0 0 0 18 9M9 6c.55 0 1 .449 1 1 0 .55-.45 1-1 1-.551 0-1-.45-1-1 0-.551.449-1 1-1m0 4c1.654 0 3-1.346 3-3s-1.346-3-3-3-3 1.346-3 3 1.346 3 3 3"/>
  </defs>
  <use fill-rule="evenodd" xlink:href="#user-avatar-a"/>
</svg>
